<?xml version="1.0" encoding="UTF-8"?>
<map version="1.10" tiledversion="1.11.2" orientation="orthogonal" renderorder="right-down" compressionlevel="0" width="25" height="25" tilewidth="16" tileheight="16" infinite="0" nextlayerid="10" nextobjectid="1">
 <properties>
  <property name="AmbientLight" value="90 90 35"/>
  <property name="Warp" value="8 12 Farm 34 6"/>
 </properties>
 <tileset firstgid="1" name="paths" tilewidth="16" tileheight="16" tilecount="64" columns="4">
  <image source="paths" width="64" height="256"/>
 </tileset>
 <tileset firstgid="65" name="zzz_dh_ejf_tiles" tilewidth="16" tileheight="16" tilecount="1975" columns="25">
  <image source="zzz_dh_ejf_tiles.png" width="400" height="1264"/>
  <wangsets>
   <wangset name="Walls" type="corner" tile="-1">
    <wangcolor name="Wall" color="#ff0000" tile="-1" probability="1"/>
    <wangtile tileid="475" wangid="0,1,0,1,0,1,0,1"/>
    <wangtile tileid="500" wangid="0,1,0,0,0,1,0,1"/>
    <wangtile tileid="501" wangid="0,1,0,0,0,0,0,1"/>
    <wangtile tileid="502" wangid="0,1,0,1,0,0,0,1"/>
    <wangtile tileid="503" wangid="0,0,0,1,0,0,0,0"/>
    <wangtile tileid="504" wangid="0,0,0,0,0,1,0,0"/>
    <wangtile tileid="525" wangid="0,0,0,0,0,1,0,1"/>
    <wangtile tileid="527" wangid="0,1,0,1,0,0,0,0"/>
    <wangtile tileid="528" wangid="0,1,0,0,0,0,0,0"/>
    <wangtile tileid="529" wangid="0,0,0,0,0,0,0,1"/>
    <wangtile tileid="550" wangid="0,0,0,1,0,1,0,1"/>
    <wangtile tileid="551" wangid="0,0,0,1,0,1,0,0"/>
    <wangtile tileid="552" wangid="0,1,0,1,0,1,0,0"/>
   </wangset>
  </wangsets>
 </tileset>
 <layer id="1" name="Back" width="25" height="25">
  <data encoding="csv">
0,0,0,0,0,0,0,0,0,0,0,0,0,0,0,0,0,0,0,0,0,0,0,0,0,
0,0,0,0,0,0,0,0,0,0,0,0,0,0,0,0,0,0,0,0,0,0,0,0,0,
0,0,0,0,0,0,0,0,0,0,0,0,0,0,0,0,0,0,0,0,0,0,0,0,0,
0,0,0,0,0,0,0,0,0,0,0,0,0,0,0,0,0,0,0,0,0,0,0,0,0,
697,697,697,697,697,697,0,0,0,0,0,0,0,0,0,0,0,0,0,0,0,0,0,0,0,
697,697,697,697,697,697,0,0,0,0,0,0,0,0,0,0,0,0,0,0,0,0,0,0,0,
0,0,0,0,0,0,0,0,0,0,0,0,0,0,0,0,0,0,0,0,0,0,0,0,0,
0,0,0,0,0,0,0,0,0,0,0,0,0,0,0,0,0,0,0,0,0,0,0,0,0,
0,0,0,0,0,0,0,0,0,0,0,0,0,0,0,0,0,0,0,0,0,0,0,0,0,
0,0,0,0,0,0,0,0,0,0,0,0,0,0,0,0,0,0,0,0,0,0,0,0,0,
0,0,0,0,0,0,0,0,0,0,0,0,0,0,0,0,0,0,0,0,0,0,0,0,0,
0,0,0,0,0,0,0,0,0,0,0,0,0,0,0,0,0,0,0,0,0,0,0,0,0,
0,0,0,0,0,0,0,0,0,0,0,0,0,0,0,0,0,0,0,0,0,0,0,0,0,
0,0,0,0,0,0,0,0,0,0,0,0,0,0,0,0,0,0,0,0,0,0,0,0,0,
0,0,0,0,0,0,0,0,0,0,0,0,0,0,0,0,0,0,0,0,0,0,0,0,0,
0,0,0,0,0,0,0,0,0,0,0,0,0,0,0,0,0,0,0,0,0,0,0,0,0,
0,0,0,0,0,0,0,0,0,0,0,0,0,0,0,0,0,0,0,0,0,0,0,0,0,
0,0,0,0,0,0,0,0,0,0,0,0,0,0,0,0,0,0,0,0,0,0,0,0,0,
0,0,0,0,0,0,0,0,0,0,0,0,0,0,0,0,0,0,0,0,0,0,0,0,0,
0,0,0,0,0,0,0,0,0,0,0,0,0,0,0,0,0,0,0,0,0,0,0,0,0,
0,0,0,0,0,0,0,0,0,0,0,0,0,0,0,0,0,0,0,0,0,0,0,0,0,
0,0,0,0,0,0,0,0,0,0,0,0,0,0,0,0,0,0,0,0,0,0,0,0,0,
0,0,0,0,0,0,0,0,0,0,0,0,0,0,0,0,0,0,0,0,0,0,0,0,0,
0,0,0,0,0,0,0,0,0,0,0,0,0,0,0,0,0,0,0,0,0,0,0,0,0,
0,0,0,0,0,0,0,0,0,0,0,0,0,0,0,0,0,0,0,0,0,0,0,0,0
</data>
 </layer>
 <layer id="2" name="Buildings" width="25" height="25">
  <data encoding="csv">
566,566,566,566,566,566,567,540,540,540,540,540,540,540,540,540,540,540,540,540,540,540,540,540,540,
625,625,625,625,625,625,592,540,540,540,540,540,540,540,540,540,540,540,540,540,540,540,540,540,540,
650,650,650,650,650,650,592,540,540,540,540,540,540,540,540,540,540,540,540,540,540,540,540,540,540,
675,675,675,675,675,675,592,540,540,540,540,540,540,540,540,540,540,540,540,540,540,540,540,540,540,
0,0,0,0,0,0,592,540,540,540,540,540,540,540,540,540,540,540,540,540,540,540,540,540,540,
0,0,0,0,0,0,592,540,540,540,540,540,540,540,540,540,540,540,540,540,540,540,540,540,540,
540,540,540,540,540,0,540,540,540,540,540,540,540,540,540,540,540,540,540,540,540,540,540,540,540,
540,540,540,540,540,0,540,540,540,540,540,540,540,540,540,540,540,540,540,540,540,540,540,540,540,
540,0,0,0,0,0,540,540,540,540,540,540,540,540,540,540,540,540,540,540,540,540,540,540,540,
540,0,540,540,540,540,540,540,540,540,540,540,540,540,540,565,566,566,566,566,567,540,540,540,540,
540,0,540,540,540,540,540,540,540,540,540,540,540,540,565,594,547,547,547,547,592,540,540,540,540,
540,0,540,565,566,566,566,566,566,566,566,566,566,566,594,547,572,572,572,572,592,540,540,540,540,
540,0,540,590,547,547,547,547,547,547,547,547,547,547,547,572,597,597,597,597,592,540,540,540,540,
540,0,540,590,572,572,572,572,572,572,572,572,572,572,572,597,0,0,0,0,592,540,540,540,540,
540,0,540,590,597,597,597,597,597,597,597,597,597,597,597,0,0,0,0,0,592,540,540,540,540,
540,0,540,590,0,0,0,0,0,0,0,0,0,0,0,0,0,0,0,0,592,540,540,540,540,
540,0,540,590,0,0,0,0,0,0,0,0,0,0,0,0,0,0,0,0,592,540,540,540,540,
540,0,540,590,0,0,0,0,0,0,0,0,0,0,0,0,0,0,0,0,592,540,540,540,540,
540,0,540,590,0,0,0,0,0,0,0,0,0,0,0,0,0,0,0,0,593,566,566,566,567,
540,0,540,590,0,0,0,0,0,0,0,0,0,0,0,0,0,0,0,0,547,547,547,547,592,
540,0,540,590,0,0,0,0,0,0,0,0,0,0,0,0,0,0,0,0,572,572,572,572,592,
540,0,540,590,0,0,0,0,0,0,0,0,0,0,0,0,0,0,0,0,597,597,597,597,592,
540,0,0,0,0,0,0,0,0,0,0,0,0,0,0,0,0,0,0,0,0,0,0,0,592,
540,540,540,615,0,0,0,0,0,0,0,0,0,0,0,0,0,0,0,0,0,0,0,0,592,
540,540,540,540,540,540,540,540,540,540,540,540,540,540,540,540,540,540,540,540,540,590,0,0,592
</data>
 </layer>
 <layer id="9" name="Buildings2" width="25" height="25">
  <data encoding="csv">
0,0,0,0,0,0,0,0,0,0,0,0,0,0,0,0,0,0,0,0,0,0,0,0,0,
0,0,0,0,0,571,0,0,0,0,0,0,0,0,0,0,0,0,0,0,0,0,0,0,0,
0,0,0,0,0,596,0,0,0,0,0,0,0,0,0,0,0,0,0,0,0,0,0,0,0,
0,0,0,0,0,621,0,0,0,0,0,0,0,0,0,0,0,0,0,0,0,0,0,0,0,
0,0,0,0,0,0,0,0,0,0,0,0,0,0,0,0,0,0,0,0,0,0,0,0,0,
0,0,0,0,0,0,0,0,0,0,0,0,0,0,0,0,0,0,0,0,0,0,0,0,0,
0,0,0,0,0,0,0,0,0,0,0,0,0,0,0,0,0,0,0,0,0,0,0,0,0,
0,0,0,0,0,0,0,0,0,0,0,0,0,0,0,0,0,0,0,0,0,0,0,0,0,
0,0,0,0,0,0,0,0,0,0,0,0,0,0,0,0,0,0,0,0,0,0,0,0,0,
0,0,0,0,0,0,0,0,0,0,0,0,0,0,0,0,0,0,0,0,0,0,0,0,0,
0,0,0,0,0,0,0,0,0,0,0,0,0,0,0,0,0,0,0,0,0,0,0,0,0,
0,0,0,0,0,0,0,0,0,0,0,0,0,0,0,0,0,0,0,0,0,0,0,0,0,
0,0,0,0,0,0,0,0,0,0,0,0,0,0,0,0,0,0,0,0,0,0,0,0,0,
0,0,0,0,0,0,0,0,0,0,0,0,0,0,0,0,0,0,0,0,0,0,0,0,0,
0,0,0,0,0,0,0,0,0,0,0,0,0,0,0,0,0,0,0,0,0,0,0,0,0,
0,0,0,0,0,0,0,0,0,0,0,0,0,0,0,0,0,0,0,0,0,0,0,0,0,
0,0,0,0,0,0,0,0,0,0,0,0,0,0,0,0,0,0,0,0,0,0,0,0,0,
0,0,0,0,0,0,0,0,0,0,0,0,0,0,0,0,0,0,0,0,0,0,0,0,0,
0,0,0,0,0,0,0,0,0,0,0,0,0,0,0,0,0,0,0,0,0,0,0,0,0,
0,0,0,0,0,0,0,0,0,0,0,0,0,0,0,0,0,0,0,0,0,0,0,0,0,
0,0,0,0,0,0,0,0,0,0,0,0,0,0,0,0,0,0,0,0,0,0,0,0,0,
0,0,0,0,0,0,0,0,0,0,0,0,0,0,0,0,0,0,0,0,0,0,0,0,0,
0,0,0,0,0,0,0,0,0,0,0,0,0,0,0,0,0,0,0,0,0,0,0,0,0,
0,0,0,0,0,0,0,0,0,0,0,0,0,0,0,0,0,0,0,0,0,0,0,0,0,
0,0,0,0,0,0,0,0,0,0,0,0,0,0,0,0,0,0,0,0,0,0,0,0,0
</data>
 </layer>
 <layer id="3" name="Paths" width="25" height="25">
  <data encoding="csv">
0,0,0,0,0,0,0,0,0,0,0,0,0,0,0,0,0,0,0,0,0,0,0,0,0,
0,0,0,0,0,0,0,0,0,0,0,0,0,0,0,0,0,0,0,0,0,0,0,0,0,
0,0,0,0,0,0,0,0,0,0,0,0,0,0,0,0,0,0,0,0,0,0,0,0,0,
0,0,0,0,0,0,0,0,0,0,0,0,0,0,0,0,0,0,0,0,0,0,0,0,0,
0,0,0,0,0,0,0,0,0,0,0,0,0,0,0,0,0,0,0,0,0,0,0,0,0,
0,0,0,0,0,0,0,0,0,0,0,0,0,0,0,0,0,0,0,0,0,0,0,0,0,
0,0,0,0,0,0,0,0,0,0,0,0,0,0,0,0,0,0,0,0,0,0,0,0,0,
0,0,0,0,0,0,0,0,0,0,0,0,0,0,0,0,0,0,0,0,0,0,0,0,0,
0,0,0,0,0,0,0,0,0,0,0,0,0,0,0,0,0,0,0,0,0,0,0,0,0,
0,0,0,0,0,0,0,0,0,0,0,0,0,0,0,0,0,0,0,0,0,0,0,0,0,
0,0,0,0,0,0,0,0,0,0,0,0,0,0,0,0,0,0,0,0,0,0,0,0,0,
0,0,0,0,0,0,0,0,0,0,0,0,0,0,0,0,0,0,0,0,0,0,0,0,0,
0,0,0,0,0,0,0,0,0,0,0,0,0,0,0,0,0,0,0,0,0,0,0,0,0,
0,0,0,0,0,0,0,0,0,0,0,0,0,0,0,0,0,0,0,0,0,0,0,0,0,
0,0,0,0,0,0,0,0,0,0,0,0,0,0,0,0,0,0,0,0,0,0,0,0,0,
0,0,0,0,0,0,0,0,0,0,0,0,0,0,0,0,0,0,0,0,0,0,0,0,0,
0,0,0,0,0,0,0,0,0,0,0,0,0,0,0,0,0,0,0,0,0,0,0,0,0,
0,0,0,0,0,0,0,0,0,0,0,0,0,0,0,0,0,0,0,0,0,0,0,0,0,
0,0,0,0,0,0,0,0,0,0,0,0,0,0,0,0,0,0,0,0,0,0,0,0,0,
0,0,0,0,0,0,0,0,0,0,0,0,0,0,0,0,0,0,0,0,0,0,0,0,0,
0,0,0,0,0,0,0,0,0,0,0,0,0,0,0,0,0,0,0,0,0,0,0,0,0,
0,0,0,0,0,0,0,0,0,0,0,0,0,0,0,0,0,0,0,0,0,0,0,0,0,
0,0,0,0,0,0,0,0,0,0,0,0,0,0,0,0,0,0,0,0,0,0,0,0,0,
0,0,0,0,0,0,0,0,0,0,0,0,0,0,0,0,0,0,0,0,0,0,0,0,0,
0,0,0,0,0,0,0,0,0,0,0,0,0,0,0,0,0,0,0,0,0,0,0,0,0
</data>
 </layer>
 <layer id="4" name="Front" width="25" height="25">
  <data encoding="csv">
0,0,0,0,0,0,0,0,0,0,0,0,0,0,0,0,0,0,0,0,0,0,0,0,0,
0,0,0,0,0,0,0,0,0,0,0,0,0,0,0,0,0,0,0,0,0,0,0,0,0,
0,0,0,0,0,0,0,0,0,0,0,0,0,0,0,0,0,0,0,0,0,0,0,0,0,
0,0,0,0,0,0,0,0,0,0,0,0,0,0,0,0,0,0,0,0,0,0,0,0,0,
0,0,0,0,0,0,0,0,0,0,0,0,0,0,0,0,0,0,0,0,0,0,0,0,0,
616,616,616,616,569,0,0,0,0,0,0,0,0,0,0,0,0,0,0,0,0,0,0,0,0,
0,0,0,0,0,540,0,0,0,0,0,0,0,0,0,0,0,0,0,0,0,0,0,0,0,
0,0,0,0,0,540,0,0,0,0,0,0,0,0,0,0,0,0,0,0,0,0,0,0,0,
0,540,540,540,540,540,0,0,0,0,0,0,0,0,0,0,0,0,0,0,0,0,0,0,0,
0,540,0,0,0,0,0,0,0,0,0,0,0,0,0,0,0,0,0,0,0,0,0,0,0,
0,540,0,0,0,0,0,0,0,0,0,0,0,0,0,0,0,0,0,0,0,0,0,0,0,
0,540,0,0,0,0,0,0,0,0,0,0,0,0,0,0,0,0,0,0,0,0,0,0,0,
0,540,0,0,0,0,0,0,0,0,0,0,0,0,0,0,0,0,0,0,0,0,0,0,0,
0,540,0,0,0,0,0,0,0,0,0,0,0,0,0,0,0,0,0,0,0,0,0,0,0,
0,540,0,0,0,0,0,0,0,0,0,0,0,0,0,0,0,0,0,0,0,0,0,0,0,
0,540,0,0,0,0,0,0,0,0,0,0,0,0,0,0,0,0,0,0,0,0,0,0,0,
0,540,0,0,0,0,0,0,0,0,0,0,0,0,0,0,0,0,0,0,0,0,0,0,0,
0,540,0,0,0,0,0,0,0,0,0,0,0,0,0,0,0,0,0,0,0,0,0,0,0,
0,540,0,0,0,0,0,0,0,0,0,0,0,0,0,0,0,0,0,0,0,0,0,0,0,
0,540,0,0,0,0,0,0,0,0,0,0,0,0,0,0,0,0,0,0,0,0,0,0,0,
0,540,0,0,0,0,0,0,0,0,0,0,0,0,0,0,0,0,0,0,0,0,0,0,0,
0,540,0,0,0,0,0,0,0,0,0,0,0,0,0,0,0,0,0,0,0,0,0,0,0,
0,540,540,590,0,0,0,0,0,0,0,0,0,0,0,0,0,0,0,0,0,0,0,0,0,
0,0,0,0,616,616,616,616,616,616,616,616,616,616,616,616,616,616,616,616,616,569,0,0,0,
0,0,0,0,0,0,0,0,0,0,0,0,0,0,0,0,0,0,0,0,0,0,0,0,0
</data>
 </layer>
 <objectgroup id="5" name="Back"/>
 <objectgroup id="6" name="Buildings"/>
 <objectgroup id="7" name="Paths"/>
 <objectgroup id="8" name="Front"/>
</map>
